X:2
T:The Whinny Hills of Leitrim
M:9/8
R:slip jig
D:
D:
K:ADor
G|:~A3 dcA d2c| ~A3 dcA GFG| ~A3 dcA d2d|1 eag (3efg e dBG:|/
|2 eag (3efg e dBA|/
|: G2B GBd g3| G2B GAG FED| G2B GBd g3|1 f2g/2f/2 efe dBA:|2/
f2g/2f/2 efe dBG||
% Output from ABC2Win 2.2 12/12/2010
